16x16/apps/mx-tools.svg

<svg xmlns="http://www.w3.org/2000/svg" width="16" height="16" version="1.1">
 <rect style="fill:#318e9e" width="16" height="16" x="0" y="0" rx=".8" ry=".8"/>
 <path style="fill:#f4f4f7" d="M 5.5,2 C 5.3467,2.0003 5.1937,2.0147 5.043,2.043 L 6,3 V 5 H 4 L 3.0449,4.0449 C 3.0161,4.1949 3.001,4.3473 3,4.5 3,5.8807 4.1193,7 5.5,7 5.7704,6.999 6.0389,6.9542 6.2949,6.8672 L 7.3418,8.1758 6.7051,8.8828 6,8 1,14 H 15 L 12,11 11.666,11.334 9.1875,8.2344 11.199,6 H 13 V 7 L 14,8 16,6 15,5 H 14 V 4 L 12,2 H 9 L 11,3 10,5 10.105,5.1055 8.2949,7.1172 7.4512,6.0625 C 7.8063,5.6191 7.9999,5.0681 8,4.5 8,3.1193 6.8807,2 5.5,2 Z M 8.2344,9.293 10.666,12.334 10,13 7.5996,10 Z"/>
</svg>

<svg xmlns="http://www.w3.org/2000/svg" width="16" height="16"><rect style="fill:#318e9e" width="16" height="16" rx=".8" ry=".8"/><path style="fill:#f4f4f7" d="M5.5 2c-.153 0-.306.015-.457.043L6 3v2H4l-.955-.955C3.016 4.195 3 4.347 3 4.5A2.5 2.5 0 0 0 5.5 7a2.5 2.5 0 0 0 .795-.133l1.047 1.309-.637.707L6 8l-5 6h14l-3-3-.334.334-2.479-3.1L11.2 6H13v1l1 1 2-2-1-1h-1V4l-2-2H9l2 1-1 2 .105.106-1.81 2.011-.844-1.054A2.5 2.5 0 0 0 5.5 2zm2.734 7.293 2.432 3.041L10 13l-2.4-3z"/></svg>
